Numix-GalliumOS/48/actions/stock_mail-open-multiple.svg

<?xml version="1.0" encoding="UTF-8" standalone="no"?>
<svg
   xmlns:dc="http://purl.org/dc/elements/1.1/"
   xmlns:cc="http://creativecommons.org/ns#"
   xmlns:rdf="http://www.w3.org/1999/02/22-rdf-syntax-ns#"
   xmlns:svg="http://www.w3.org/2000/svg"
   xmlns="http://www.w3.org/2000/svg"
   xmlns:sodipodi="http://sodipodi.sourceforge.net/DTD/sodipodi-0.dtd"
   xmlns:inkscape="http://www.inkscape.org/namespaces/inkscape"
   width="48"
   height="48"
   viewBox="0 0 48 48"
   id="svg2"
   version="1.1"
   inkscape:version="0.91 r"
   sodipodi:docname=" stock_mail-open-multiple.svg">
  <metadata
     id="metadata28">
    <rdf:RDF>
      <cc:Work
         rdf:about="">
        <dc:format>image/svg+xml</dc:format>
        <dc:type
           rdf:resource="http://purl.org/dc/dcmitype/StillImage" />
        <dc:title></dc:title>
      </cc:Work>
    </rdf:RDF>
  </metadata>
  <defs
     id="defs26" />
  <sodipodi:namedview
     pagecolor="#ffffff"
     bordercolor="#666666"
     borderopacity="1"
     objecttolerance="10"
     gridtolerance="10"
     guidetolerance="10"
     inkscape:pageopacity="0"
     inkscape:pageshadow="2"
     inkscape:window-width="1920"
     inkscape:window-height="1056"
     id="namedview24"
     showgrid="true"
     inkscape:zoom="6.9532165"
     inkscape:cx="-24.415257"
     inkscape:cy="36.092656"
     inkscape:window-x="0"
     inkscape:window-y="24"
     inkscape:window-maximized="1"
     inkscape:current-layer="svg2">
    <inkscape:grid
       type="xygrid"
       id="grid4186" />
  </sodipodi:namedview>
  <g
     style="fill:#268bd2"
     id="g4"
     transform="matrix(0.77272727,0,0,0.78125,0.45454546,-8.9375)">
    <path
       d="m 6,14 c -4,0 -4,0 -4,4 l 0,24 c 0,4 0,4 4,4 l 36,0 c 4,0 4,0 4,-4 0,-8.851562 0,-18.882812 0,-24 0,-4 0,-4 -4,-4 z"
       id="path6"
       inkscape:connector-curvature="0" />
    <path
       d="m 6,46 36,0 c 4,0 4,0 4,-4 L 46,18 2,42 c 0,4 0,4 4,4 z"
       id="path8"
       inkscape:connector-curvature="0" />
  </g>
  <path
     style="fill:#000000;fill-opacity:0.10199998"
     d="M 5.0909095,27 32.909091,27 C 36,27 36,27 36,23.875 L 36,5.125 2.0000005,23.875 c 0,3.125 0,3.125 3.090909,3.125 z"
     id="path10"
     inkscape:connector-curvature="0" />
  <path
     style="fill:#268bd2"
     d="M 32.909091,27 5.0909095,27 c -3.090909,0 -3.090909,0 -3.090909,-3.125 l 0,-18.75 L 36,23.875 C 36,27 36,27 32.909091,27 Z"
     id="path12"
     inkscape:connector-curvature="0" />
  <path
     style="fill:#ffffff;fill-opacity:0.10199998"
     d="M 2.0000005,5.125 19,14.5 36,5.125 C 36,2 36,2 32.909091,2 L 5.0909095,2 c -3.090909,0 -3.090909,0 -3.090909,3.125 z"
     id="path14"
     inkscape:connector-curvature="0" />
  <g
     id="g4167"
     transform="matrix(0.77272727,0,0,0.77272727,10.454545,10.454546)">
    <path
       id="path4147"
       d="m 6,46 36,0 c 4,0 4,0 4,-4 L 46,16 24,2 2,16 2,42 c 0,4 0,4 4,4 z"
       style="fill:#268bd2"
       inkscape:connector-curvature="0" />
    <path
       id="path4149"
       d="m 6,46 36,0 c 4,0 4,0 4,-4 L 46,16 24,2 2,16 2,42 c 0,4 0,4 4,4 z"
       style="fill:#000000;fill-opacity:0.10199998"
       inkscape:connector-curvature="0" />
    <path
       id="path4151"
       d="M 8,8 8,40 40,40 40,8 Z"
       style="fill:#ffffff"
       inkscape:connector-curvature="0" />
    <g
       id="g4153"
       style="fill:#268bd2">
      <path
         id="path4155"
         d="m 6,46 36,0 c 4,0 4,0 4,-4 L 46,18 2,42 c 0,4 0,4 4,4 z"
         inkscape:connector-curvature="0" />
      <path
         id="path4157"
         d="M 42,46 6,46 C 2,46 2,46 2,42 L 2,18 46,42 c 0,4 0,4 -4,4 z"
         inkscape:connector-curvature="0" />
    </g>
    <path
       id="path4159"
       d="M 42,46 6,46 C 2,46 2,46 2,42 L 2,18 46,42 c 0,4 0,4 -4,4 z"
       style="fill:#ffffff;fill-opacity:0.10199998"
       inkscape:connector-curvature="0" />
  </g>
</svg>

<svg xmlns="http://www.w3.org/2000/svg" viewBox="0 0 48 48">
 <g transform="matrix(0.77272727,0,0,0.78125,0.45454546,-8.9375)" style="fill:#268bd2">
  <path d="m 6 14 c -4 0 -4 0 -4 4 l 0 24 c 0 4 0 4 4 4 l 36 0 c 4 0 4 0 4 -4 0 -8.852 0 -18.883 0 -24 0 -4 0 -4 -4 -4 z"/>
  <path d="m 6,46 36,0 c 4,0 4,0 4,-4 L 46,18 2,42 c 0,4 0,4 4,4 z"/>
 </g>
 <path d="m 5.091 27 27.818 0 c 3.091 0 3.091 0 3.091 -3.125 l 0 -18.75 -34 18.75 c 0 3.125 0 3.125 3.091 3.125 z" style="fill:#000;fill-opacity:0.102"/>
 <path d="m 32.909 27 -27.818 0 c -3.091 0 -3.091 0 -3.091 -3.125 l 0 -18.75 l 34 18.75 c 0 3.125 0 3.125 -3.091 3.125" style="fill:#268bd2"/>
 <path d="m 2 5.125 17 9.375 17 -9.375 c 0 -3.125 0 -3.125 -3.091 -3.125 l -27.818 0 c -3.091 0 -3.091 0 -3.091 3.125 z" style="fill:#fff;fill-opacity:0.102"/>
 <g transform="matrix(0.77272727,0,0,0.77272727,10.454545,10.454546)">
  <path d="m 6,46 36,0 c 4,0 4,0 4,-4 L 46,16 24,2 2,16 2,42 c 0,4 0,4 4,4 z" style="fill:#268bd2"/>
  <path d="m 6,46 36,0 c 4,0 4,0 4,-4 L 46,16 24,2 2,16 2,42 c 0,4 0,4 4,4 z" style="fill:#000;fill-opacity:0.102"/>
  <path d="m 8 8 0 32 32 0 0 -32" style="fill:#fff"/>
  <g style="fill:#268bd2">
   <path d="m 6,46 36,0 c 4,0 4,0 4,-4 L 46,18 2,42 c 0,4 0,4 4,4 z"/>
   <path d="M 42,46 6,46 C 2,46 2,46 2,42 L 2,18 46,42 c 0,4 0,4 -4,4 z"/>
  </g>
  <path d="M 42,46 6,46 C 2,46 2,46 2,42 L 2,18 46,42 c 0,4 0,4 -4,4 z" style="fill:#fff;fill-opacity:0.102"/>
 </g>
</svg>
